X:1
T:les Enfants
%%score 1 2
L:1/8
M:2/4
I:linebreak $
K:G
V:1 treble 
V:2 bass 
V:1
|: g2 af | g2 af | gd{d} c2 | B/A/G/F/ GD | EG ce | df gd | dc cB | A4 :: TA2 TB2 | Tc2 TB2 |$ %10
 TA2 TB2 | cA TB2 | e2 d/c/B/A/ | df gc |{c} BA/G/ AG/F/ | G2 G2 :| %16
V:2
|: G,2 D,2 | G,,2 D,2 | G,B,A,F, | G,3 G,, | C,2 C2 | B,2 G,2 | z F,G,G,, | D,4 :: D,D D,D | %9
 D,D D,D |$ D,D D,D | D,D G,2 | C,2 C2 | B,A, B,F, | G,2 D,2 | G,2 G,,2 :| %16
